X:25
T:Dubuque
S:Bernie Waugh
R:Reel
M:2/4
L:1/16
K:D
|:\
"D"A,B,DE D2DE|"F#m"FABF A3A|"Em"BAdA BAFE|"G"DEFD "A"EDB,G,|
"D"A,B,DE D2DE|"F#m"FABF A3A|"Em"BAdA "G"BAFE|"A7"DFE2"D"D4:|
|:\
"D"FA2F A2BA|"D7"FEDF E2D2|"Em"GB2G B2Bc|"G"d2BG AGFE|
"D"FA2F A2BA|"Bm7"FEDF EDB,G,|"G"A,B,DE FABF|"A7"AFEF "D"D4:|

